X: 11
T: the Boyne Hunt
T: the Perthshire Hunt
C:Miss Stirling
R:reel
B:Joyce, P. W.; "Old Irish Folk Music and Songs"
N:Usually 16 bars; the 2nd part may be be repeated for 24 bars.
N:The final ending is usually only played the very last time.
L:1/8
M:C
Z:Allan Garvin
K:D
|:\
BAFA D2 FA | D2 FA BE E2 |\
[1 BAFA D3 F | ABde fedB :|\
[2 BAFA DEFG | ABde fd d2 ||
{f}a3 f a2 af | gfga be e2 |\
{f}a3 f gedB | ABde fd D2 |
faaf a2 af | gfga beeg |\
fgfe dedB |[1 ABde fedB :|[2 ABfe fd d2 |]

%%sep 2 1 500
%%sep 1 1 500

